icons/arrow-bar-in-left.svg

<svg xmlns="http://www.w3.org/2000/svg" width="24" height="24" viewBox="0 0 24 24">
  <path d="M3,2 C3.51283584,2 3.93550716,2.38604019 3.99327227,2.88337887 L4,3 L4,21 C4,21.5522847 3.55228475,22 3,22 C2.48716416,22 2.06449284,21.6139598 2.00672773,21.1166211 L2,21 L2,3 C2,2.44771525 2.44771525,2 3,2 Z M6.01101934,11.8510388 C6.01362808,11.834051 6.01670217,11.8166247 6.02024007,11.7992742 C6.0246398,11.7772539 6.02983363,11.7555635 6.03572097,11.7341604 C6.04017413,11.7182588 6.04489522,11.7025958 6.05000842,11.6870335 C6.0559003,11.6689468 6.06244532,11.6508514 6.06948879,11.6330072 C6.07731015,11.613165 6.08591191,11.5932325 6.09519221,11.5735404 C6.1040443,11.5549095 6.1131069,11.5371537 6.12267436,11.5197141 C6.12986112,11.5064305 6.13772719,11.4928304 6.14593987,11.4793822 C6.15891923,11.4583066 6.17252629,11.4377852 6.1868509,11.4178133 C6.19602294,11.4048869 6.20595004,11.3917355 6.21624472,11.3787805 C6.2404037,11.3484595 6.26587927,11.3199072 6.29289322,11.2928932 L11.9497475,5.63603897 C12.3402718,5.24551468 12.9734367,5.24551468 13.363961,5.63603897 C13.724445,5.99652293 13.7521745,6.56375399 13.4471496,6.95604519 L13.363961,7.05025253 L9.414,10.9991458 L21,11 C21.5522847,11 22,11.4477153 22,12 C22,12.5128358 21.6139598,12.9355072 21.1166211,12.9932723 L21,13 L9.414,12.9991458 L13.363961,16.9497475 C13.7544853,17.3402718 13.7544853,17.9734367 13.363961,18.363961 C13.0034771,18.724445 12.436246,18.7521745 12.0439548,18.4471496 L11.9497475,18.363961 L6.29289322,12.7071068 L6.22,12.625 L6.226,12.633 L6.21968877,12.625449 L6.216,12.621 L6.219,12.624 L6.1898147,12.5864257 L6.1898147,12.5864257 C6.17541687,12.5664533 6.16150681,12.5456983 6.14837237,12.5244138 C6.13863517,12.5087703 6.12981337,12.4935488 6.12142608,12.4781534 C6.11185933,12.4604898 6.10247102,12.4419547 6.09365378,12.4230991 L6.07122549,12.371336 L6.07122549,12.371336 C6.06331574,12.3515792 6.05612249,12.3317977 6.04954668,12.3117364 C6.04472872,12.2968513 6.04009773,12.2814633 6.03584514,12.265993 C6.02983363,12.2444365 6.0246398,12.2227461 6.02016515,12.2007941 C6.01671819,12.1834538 6.01365592,12.1661068 6.01105328,12.1487043 C6.00806389,12.1291721 6.00568824,12.1091935 6.00391025,12.0890432 C6.00190536,12.0660447 6.00065719,12.0430382 6.00019915,12.0200189 C6.00006675,12.0134712 6,12.0067434 6,12 L6,11.98 L6.001,11.945 L6.002,11.924 L6.00396641,11.9107499 L6.00396641,11.9107499 L6.003,11.919 L6.01101934,11.8510388 L6.01101934,11.8510388 Z"/>
</svg>

<svg xmlns="http://www.w3.org/2000/svg" viewBox="0 0 24 24">
  <path d="M3 2a1 1 0 0 1 1 .88V21a1 1 0 0 1-2 .12V3a1 1 0 0 1 1-1zm3.01 9.85a1.08 1.08 0 0 1 .14-.37 1.05 1.05 0 0 1 .14-.19l5.66-5.65a1 1 0 0 1 1.5 1.32l-.09.09L9.41 11H21a1 1 0 0 1 .12 2H9.4l3.95 3.95a1 1 0 0 1-1.32 1.5l-.09-.09-5.66-5.65-.07-.09v.01l-.03-.04a1.04 1.04 0 0 1-.1-.17l-.02-.05A.99.99 0 0 1 6 12v-.08l.01-.07z"/>
</svg>
